img/logo.svg

<svg width="181" height="71" viewBox="0 0 181 71" fill="none" xmlns="http://www.w3.org/2000/svg">
<path d="M16.7665 51.4557C16.7665 52.0299 16.7282 52.5467 16.6516 53.006H5.02411C5.11981 54.1544 5.52175 55.054 6.22992 55.7047C6.9381 56.3555 7.80897 56.6809 8.84252 56.6809C10.3354 56.6809 11.3977 56.0397 12.0293 54.7573H16.3645C15.9052 56.2885 15.0247 57.5517 13.7232 58.547C12.4217 59.5232 10.8235 60.0112 8.92865 60.0112C7.39746 60.0112 6.01938 59.6763 4.79443 59.0064C3.58861 58.3173 2.64119 57.3508 1.95215 56.1067C1.28225 54.8626 0.947304 53.4271 0.947304 51.8002C0.947304 50.1542 1.28225 48.7091 1.95215 47.465C2.62205 46.2209 3.5599 45.2639 4.76572 44.594C5.97153 43.9241 7.35918 43.5892 8.92865 43.5892C10.4407 43.5892 11.7901 43.9146 12.9767 44.5653C14.1826 45.2161 15.1108 46.1444 15.7616 47.3502C16.4315 48.5368 16.7665 49.9053 16.7665 51.4557ZM12.6035 50.3073C12.5844 49.2737 12.2111 48.4507 11.4838 47.8382C10.7565 47.2066 9.86651 46.8908 8.81381 46.8908C7.81854 46.8908 6.97638 47.197 6.28734 47.8095C5.61745 48.4029 5.20594 49.2354 5.05282 50.3073H12.6035ZM22.5712 38.5075V59.7528H18.5518V38.5075H22.5712ZM24.3604 51.7428C24.3604 50.135 24.6762 48.7091 25.3079 47.465C25.9586 46.2209 26.8295 45.2639 27.9205 44.594C29.0306 43.9241 30.2651 43.5892 31.624 43.5892C32.8107 43.5892 33.8443 43.8284 34.7247 44.3069C35.6243 44.7854 36.342 45.3883 36.8779 46.1156V43.8476H40.926V59.7528H36.8779V57.4273C36.3612 58.1738 35.6434 58.7958 34.7247 59.2935C33.8251 59.772 32.782 60.0112 31.5953 60.0112C30.2555 60.0112 29.0306 59.6667 27.9205 58.9777C26.8295 58.2886 25.9586 57.3221 25.3079 56.078C24.6762 54.8147 24.3604 53.3697 24.3604 51.7428ZM36.8779 51.8002C36.8779 50.8241 36.6865 49.9915 36.3038 49.3024C35.921 48.5943 35.4042 48.0583 34.7534 47.6947C34.1027 47.3119 33.4041 47.1205 32.6576 47.1205C31.9111 47.1205 31.2221 47.3023 30.5905 47.666C29.9589 48.0296 29.4421 48.5656 29.0401 49.2737C28.6574 49.9628 28.466 50.7858 28.466 51.7428C28.466 52.6998 28.6574 53.5419 29.0401 54.2692C29.4421 54.9774 29.9589 55.5229 30.5905 55.9057C31.2412 56.2885 31.9303 56.4799 32.6576 56.4799C33.4041 56.4799 34.1027 56.2981 34.7534 55.9344C35.4042 55.5516 35.921 55.0157 36.3038 54.3267C36.6865 53.6185 36.8779 52.7763 36.8779 51.8002ZM48.383 47.1492V54.8434C48.383 55.3794 48.5074 55.7717 48.7562 56.0206C49.0242 56.2502 49.4644 56.3651 50.0769 56.3651H51.943V59.7528H49.4165C46.0288 59.7528 44.3349 58.1068 44.3349 54.8147V47.1492H42.44V43.8476H44.3349V39.9143H48.383V43.8476H51.943V47.1492H48.383ZM68.4712 51.4557C68.4712 52.0299 68.4329 52.5467 68.3563 53.006H56.7288C56.8245 54.1544 57.2265 55.054 57.9346 55.7047C58.6428 56.3555 59.5137 56.6809 60.5472 56.6809C62.0401 56.6809 63.1024 56.0397 63.734 54.7573H68.0692C67.6099 56.2885 66.7294 57.5517 65.4279 58.547C64.1264 59.5232 62.5282 60.0112 60.6334 60.0112C59.1022 60.0112 57.7241 59.6763 56.4991 59.0064C55.2933 58.3173 54.3459 57.3508 53.6569 56.1067C52.987 54.8626 52.652 53.4271 52.652 51.8002C52.652 50.1542 52.987 48.7091 53.6569 47.465C54.3268 46.2209 55.2646 45.2639 56.4704 44.594C57.6762 43.9241 59.0639 43.5892 60.6334 43.5892C62.1454 43.5892 63.4948 43.9146 64.6815 44.5653C65.8873 45.2161 66.8156 46.1444 67.4663 47.3502C68.1362 48.5368 68.4712 49.9053 68.4712 51.4557ZM64.3082 50.3073C64.2891 49.2737 63.9159 48.4507 63.1885 47.8382C62.4612 47.2066 61.5712 46.8908 60.5185 46.8908C59.5232 46.8908 58.6811 47.197 57.9921 47.8095C57.3222 48.4029 56.9106 49.2354 56.7575 50.3073H64.3082ZM95.7016 43.6179C97.6539 43.6179 99.2233 44.2208 100.41 45.4266C101.616 46.6133 102.219 48.2785 102.219 50.4221V59.7528H98.1993V50.9676C98.1993 49.7235 97.8835 48.7761 97.2519 48.1253C96.6203 47.4554 95.759 47.1205 94.668 47.1205C93.5771 47.1205 92.7062 47.4554 92.0554 48.1253C91.4238 48.7761 91.108 49.7235 91.108 50.9676V59.7528H87.0886V50.9676C87.0886 49.7235 86.7728 48.7761 86.1412 48.1253C85.5096 47.4554 84.6483 47.1205 83.5573 47.1205C82.4472 47.1205 81.5668 47.4554 80.916 48.1253C80.2844 48.7761 79.9686 49.7235 79.9686 50.9676V59.7528H75.9492V43.8476H79.9686V45.7711C80.4853 45.1012 81.1457 44.5749 81.9495 44.1921C82.7726 43.8093 83.6721 43.6179 84.6483 43.6179C85.8924 43.6179 87.0025 43.8858 87.9786 44.4218C88.9548 44.9385 89.7108 45.685 90.2467 46.6611C90.7635 45.7424 91.5099 45.0055 92.4861 44.4505C93.4814 43.8954 94.5532 43.6179 95.7016 43.6179ZM111.947 60.0112C110.416 60.0112 109.038 59.6763 107.813 59.0064C106.588 58.3173 105.621 57.3508 104.913 56.1067C104.224 54.8626 103.88 53.4271 103.88 51.8002C103.88 50.1733 104.234 48.7378 104.942 47.4937C105.669 46.2496 106.655 45.2926 107.899 44.6227C109.143 43.9337 110.531 43.5892 112.062 43.5892C113.593 43.5892 114.981 43.9337 116.225 44.6227C117.469 45.2926 118.445 46.2496 119.153 47.4937C119.881 48.7378 120.244 50.1733 120.244 51.8002C120.244 53.4271 119.871 54.8626 119.125 56.1067C118.397 57.3508 117.402 58.3173 116.139 59.0064C114.895 59.6763 113.497 60.0112 111.947 60.0112ZM111.947 56.5086C112.674 56.5086 113.354 56.3364 113.986 55.9918C114.636 55.6282 115.153 55.0923 115.536 54.3841C115.919 53.6759 116.11 52.8146 116.11 51.8002C116.11 50.2881 115.708 49.1302 114.904 48.3263C114.119 47.5033 113.153 47.0918 112.005 47.0918C110.856 47.0918 109.89 47.5033 109.105 48.3263C108.339 49.1302 107.956 50.2881 107.956 51.8002C107.956 53.3123 108.33 54.4798 109.076 55.3028C109.842 56.1067 110.799 56.5086 111.947 56.5086ZM128.676 56.0493L132.696 43.8476H136.973L131.088 59.7528H126.207L120.35 43.8476H124.657L128.676 56.0493ZM140.121 41.9527C139.413 41.9527 138.819 41.7326 138.341 41.2924C137.882 40.833 137.652 40.2684 137.652 39.5985C137.652 38.9286 137.882 38.3735 138.341 37.9333C138.819 37.474 139.413 37.2443 140.121 37.2443C140.829 37.2443 141.413 37.474 141.872 37.9333C142.351 38.3735 142.59 38.9286 142.59 39.5985C142.59 40.2684 142.351 40.833 141.872 41.2924C141.413 41.7326 140.829 41.9527 140.121 41.9527ZM142.102 43.8476V59.7528H138.083V43.8476H142.102ZM153.739 43.6179C155.633 43.6179 157.165 44.2208 158.332 45.4266C159.5 46.6133 160.083 48.2785 160.083 50.4221V59.7528H156.064V50.9676C156.064 49.7044 155.748 48.7378 155.117 48.0679C154.485 47.3789 153.624 47.0344 152.533 47.0344C151.423 47.0344 150.542 47.3789 149.891 48.0679C149.26 48.7378 148.944 49.7044 148.944 50.9676V59.7528H144.925V43.8476H148.944V45.8285C149.48 45.1395 150.159 44.6036 150.982 44.2208C151.825 43.8189 152.743 43.6179 153.739 43.6179ZM168.987 43.5892C170.174 43.5892 171.217 43.8284 172.117 44.3069C173.016 44.7663 173.725 45.3692 174.241 46.1156V43.8476H178.289V59.8677C178.289 61.3415 177.993 62.6525 177.399 63.8009C176.806 64.9685 175.916 65.8872 174.729 66.5571C173.543 67.2461 172.107 67.5906 170.423 67.5906C168.164 67.5906 166.308 67.0643 164.853 66.0116C163.418 64.9589 162.604 63.5234 162.413 61.7051H166.403C166.614 62.4324 167.064 63.0066 167.753 63.4277C168.461 63.8679 169.313 64.088 170.308 64.088C171.476 64.088 172.423 63.7339 173.15 63.0258C173.878 62.3367 174.241 61.284 174.241 59.8677V57.3986C173.725 58.1451 173.007 58.7671 172.088 59.2648C171.188 59.7624 170.155 60.0112 168.987 60.0112C167.648 60.0112 166.423 59.6667 165.313 58.9777C164.202 58.2886 163.322 57.3221 162.671 56.078C162.04 54.8147 161.724 53.3697 161.724 51.7428C161.724 50.135 162.04 48.7091 162.671 47.465C163.322 46.2209 164.193 45.2639 165.284 44.594C166.394 43.9241 167.628 43.5892 168.987 43.5892ZM174.241 51.8002C174.241 50.8241 174.05 49.9915 173.667 49.3024C173.284 48.5943 172.768 48.0583 172.117 47.6947C171.466 47.3119 170.767 47.1205 170.021 47.1205C169.274 47.1205 168.585 47.3023 167.954 47.666C167.322 48.0296 166.805 48.5656 166.403 49.2737C166.021 49.9628 165.829 50.7858 165.829 51.7428C165.829 52.6998 166.021 53.5419 166.403 54.2692C166.805 54.9774 167.322 55.5229 167.954 55.9057C168.605 56.2885 169.294 56.4799 170.021 56.4799C170.767 56.4799 171.466 56.2981 172.117 55.9344C172.768 55.5516 173.284 55.0157 173.667 54.3267C174.05 53.6185 174.241 52.7763 174.241 51.8002Z" fill="white"/>
<path fill-rule="evenodd" clip-rule="evenodd" d="M138.852 12.0144C139.584 12.7945 140.249 13.5026 141.482 13.952C145.107 15.2732 145.649 18.4914 144.937 21.2016C144.553 19.8352 142.979 17.0822 139.754 17.0009C136.529 16.9196 134.097 17.1025 133.284 17.2041C135.497 17.2154 140.526 17.9359 142.938 20.7273C142.853 20.6997 142.768 20.6716 142.682 20.6434C140.899 20.0575 138.867 19.3899 133.284 21.6862C130.781 22.7155 127.417 22.2606 123.827 21.7751C119.021 21.1252 113.81 20.4207 109.722 23.1495C102.58 27.9166 88.5982 31.6373 73.058 32.114C80.4351 29.6271 96.7762 21.6862 96.7762 0.164279C103.826 -0.645557 109.67 1.68337 115.572 4.03569C119.91 5.76476 124.28 7.50646 129.185 8.02359C135.757 8.71655 137.431 10.501 138.852 12.0144ZM129.865 10.4044L135.015 14.17L136.011 12.0104C135.033 11.475 132.434 10.4044 129.865 10.4044Z" fill="white"/>
<path d="M20.6738 0.000141144L32.5924 7.76814H83.6059C82.9594 9.09732 82.1557 10.6004 81.1569 12.2799H37.2153L49.1339 20.0479H76.041C74.8643 21.715 73.7518 23.224 72.7356 24.5601H55.2738L67.0513 31.5225C67.0013 31.5778 66.9756 31.6058 66.9756 31.6058C66.9756 31.6058 67.0218 31.5896 67.11 31.5572L67.1923 31.6058L67.3291 31.4755C69.5404 30.6405 81.5682 25.804 87.4896 17.2977C94.0262 7.90794 92.5463 0.000141144 92.5463 0.000141144H20.6738Z" fill="#FE7300"/>
</svg>

<svg width="181" height="71" fill="none" xmlns="http://www.w3.org/2000/svg"><path d="M16.767 51.456a9.48 9.48 0 01-.115 1.55H5.024c.096 1.148.498 2.048 1.206 2.699.708.65 1.579.976 2.613.976 1.492 0 2.555-.641 3.186-1.924h4.335c-.459 1.532-1.34 2.795-2.64 3.79-1.302.976-2.9 1.464-4.795 1.464-1.532 0-2.91-.335-4.135-1.005a7.396 7.396 0 01-2.842-2.9C1.282 54.864.947 53.428.947 51.8c0-1.646.335-3.09 1.005-4.335.67-1.244 1.608-2.201 2.814-2.871 1.206-.67 2.593-1.005 4.163-1.005 1.512 0 2.861.326 4.048.976a6.734 6.734 0 012.785 2.785c.67 1.187 1.005 2.555 1.005 4.106zm-4.163-1.149c-.02-1.033-.393-1.856-1.12-2.469-.727-.631-1.617-.947-2.67-.947-.995 0-1.838.306-2.527.919-.67.593-1.081 1.425-1.234 2.497h7.55zm9.967-11.8v21.246h-4.02V38.508h4.02zm1.79 13.236c0-1.608.315-3.034.947-4.278.65-1.244 1.521-2.201 2.613-2.871 1.11-.67 2.344-1.005 3.703-1.005 1.187 0 2.22.24 3.1.718.9.478 1.618 1.081 2.154 1.809v-2.268h4.048v15.905h-4.048v-2.326c-.517.747-1.235 1.369-2.153 1.867-.9.478-1.943.717-3.13.717a6.831 6.831 0 01-3.674-1.033c-1.091-.69-1.962-1.656-2.613-2.9-.632-1.263-.948-2.708-.948-4.335zm12.517.057c0-.976-.191-1.808-.574-2.498-.383-.708-.9-1.244-1.55-1.607a4.064 4.064 0 00-2.096-.575 4.07 4.07 0 00-2.068.546c-.631.364-1.148.9-1.55 1.608-.383.689-.574 1.512-.574 2.469 0 .957.191 1.799.574 2.526.402.708.919 1.254 1.55 1.637.651.383 1.34.574 2.068.574a4.22 4.22 0 002.095-.546 4.177 4.177 0 001.55-1.607c.384-.709.575-1.55.575-2.527zm11.505-4.65v7.693c0 .536.124.929.373 1.178.268.23.708.344 1.32.344h1.867v3.388h-2.526c-3.388 0-5.082-1.646-5.082-4.938v-7.666H42.44v-3.301h1.895v-3.934h4.048v3.934h3.56v3.301h-3.56zm20.088 4.306a9.48 9.48 0 01-.115 1.55H56.73c.096 1.148.498 2.048 1.206 2.699.708.65 1.579.976 2.612.976 1.493 0 2.555-.641 3.187-1.924h4.335c-.46 1.532-1.34 2.795-2.641 3.79-1.302.976-2.9 1.464-4.795 1.464-1.53 0-2.909-.335-4.134-1.005a7.396 7.396 0 01-2.842-2.9c-.67-1.243-1.005-2.679-1.005-4.306 0-1.646.335-3.09 1.005-4.335.67-1.244 1.608-2.201 2.813-2.871 1.206-.67 2.594-1.005 4.163-1.005 1.512 0 2.862.326 4.048.976a6.734 6.734 0 012.785 2.785c.67 1.187 1.005 2.555 1.005 4.106zm-4.163-1.149c-.019-1.033-.392-1.856-1.12-2.469-.727-.631-1.617-.947-2.67-.947-.995 0-1.837.306-2.526.919-.67.593-1.081 1.425-1.234 2.497h7.55zm31.394-6.69c1.952 0 3.521.604 4.708 1.81 1.206 1.186 1.809 2.852 1.809 4.995v9.33h-4.02v-8.784c0-1.245-.316-2.192-.947-2.843-.632-.67-1.493-1.005-2.584-1.005-1.09 0-1.962.335-2.613 1.005-.631.651-.947 1.599-.947 2.843v8.785h-4.02v-8.785c0-1.245-.315-2.192-.947-2.843-.631-.67-1.493-1.005-2.584-1.005-1.11 0-1.99.335-2.641 1.005-.632.651-.947 1.599-.947 2.843v8.785h-4.02V43.848h4.02v1.923a5.377 5.377 0 011.98-1.579c.824-.383 1.723-.574 2.7-.574 1.243 0 2.353.268 3.33.804a5.441 5.441 0 012.268 2.24c.516-.92 1.263-1.657 2.24-2.212a6.495 6.495 0 013.215-.832zm16.245 16.394c-1.531 0-2.909-.335-4.134-1.005a7.538 7.538 0 01-2.9-2.9c-.689-1.243-1.033-2.679-1.033-4.306 0-1.627.354-3.062 1.062-4.306a7.478 7.478 0 012.957-2.871c1.244-.69 2.632-1.034 4.163-1.034 1.531 0 2.919.345 4.163 1.034a7.285 7.285 0 012.928 2.87c.728 1.245 1.091 2.68 1.091 4.307 0 1.627-.373 3.063-1.119 4.307a7.636 7.636 0 01-2.986 2.9c-1.244.67-2.642 1.004-4.192 1.004zm0-3.502a4.2 4.2 0 002.039-.517c.65-.364 1.167-.9 1.55-1.608.383-.708.574-1.57.574-2.584 0-1.512-.402-2.67-1.206-3.474-.785-.823-1.751-1.234-2.899-1.234-1.149 0-2.115.411-2.9 1.234-.766.804-1.149 1.962-1.149 3.474 0 1.512.374 2.68 1.12 3.503.766.804 1.723 1.206 2.871 1.206zm16.729-.46l4.02-12.201h4.277l-5.885 15.905h-4.881l-5.857-15.905h4.307l4.019 12.201zm11.445-14.096c-.708 0-1.302-.22-1.78-.66-.459-.46-.689-1.025-.689-1.694 0-.67.23-1.225.689-1.666.478-.459 1.072-.689 1.78-.689s1.292.23 1.751.69c.479.44.718.995.718 1.665s-.239 1.234-.718 1.693c-.459.44-1.043.66-1.751.66zm1.981 1.895v15.905h-4.019V43.848h4.019zm11.637-.23c1.894 0 3.426.603 4.593 1.809 1.168 1.186 1.751 2.852 1.751 4.995v9.33h-4.019v-8.784c0-1.264-.316-2.23-.947-2.9-.632-.69-1.493-1.034-2.584-1.034-1.11 0-1.991.345-2.642 1.034-.631.67-.947 1.636-.947 2.9v8.785h-4.019V43.848h4.019v1.98a5.45 5.45 0 012.038-1.607 6.32 6.32 0 012.757-.603zm15.248-.029c1.187 0 2.23.24 3.13.718.899.46 1.608 1.062 2.124 1.809v-2.268h4.048v16.02c0 1.474-.296 2.785-.89 3.933-.593 1.168-1.483 2.086-2.67 2.756-1.186.69-2.622 1.034-4.306 1.034-2.259 0-4.115-.527-5.57-1.58-1.435-1.052-2.249-2.488-2.44-4.306h3.99c.211.727.661 1.302 1.35 1.723.708.44 1.56.66 2.555.66 1.168 0 2.115-.354 2.842-1.062.728-.69 1.091-1.742 1.091-3.158v-2.47c-.516.747-1.234 1.37-2.153 1.867-.9.497-1.933.746-3.101.746a6.83 6.83 0 01-3.674-1.033c-1.111-.69-1.991-1.656-2.642-2.9-.631-1.263-.947-2.708-.947-4.335 0-1.608.316-3.034.947-4.278.651-1.244 1.522-2.201 2.613-2.871 1.11-.67 2.344-1.005 3.703-1.005zm5.254 8.211c0-.976-.191-1.808-.574-2.498-.383-.708-.899-1.244-1.55-1.607a4.067 4.067 0 00-2.096-.575c-.747 0-1.436.182-2.067.546-.632.364-1.149.9-1.551 1.608-.382.689-.574 1.512-.574 2.469 0 .957.192 1.799.574 2.526.402.708.919 1.254 1.551 1.637.651.383 1.34.574 2.067.574a4.23 4.23 0 002.096-.546 4.176 4.176 0 001.55-1.607c.383-.709.574-1.55.574-2.527z" fill="#fff"/><path fill-rule="evenodd" clip-rule="evenodd" d="M138.852 12.014c.732.78 1.397 1.489 2.63 1.938 3.625 1.321 4.167 4.54 3.455 7.25-.384-1.367-1.958-4.12-5.183-4.201-3.225-.081-5.657.101-6.47.203 2.213.011 7.242.732 9.654 3.523l-.256-.084c-1.783-.585-3.815-1.253-9.398 1.043-2.503 1.03-5.867.575-9.457.09-4.806-.65-10.017-1.355-14.105 1.373-7.142 4.768-21.124 8.488-36.664 8.965 7.377-2.487 23.718-10.428 23.718-31.95 7.05-.81 12.894 1.52 18.796 3.872 4.338 1.729 8.708 3.47 13.613 3.988 6.572.693 8.246 2.477 9.667 3.99zm-8.987-1.61l5.15 3.766.996-2.16c-.978-.535-3.577-1.606-6.146-1.606z" fill="#fff"/><path d="M20.674 0l11.918 7.768h51.014a61.373 61.373 0 01-2.45 4.512h-43.94l11.918 7.768H76.04a157.343 157.343 0 01-3.305 4.512H55.274l11.777 6.963-.075.083.134-.049.082.049.137-.13c2.211-.835 14.24-5.672 20.16-14.178C94.027 7.908 92.547 0 92.547 0H20.674z" fill="#FE7300"/></svg>
